!!!COM: Jan Titelouze
!!!OPR: Hymnes de l'Eglise pour toucher sur l'orgue, avec les fugues et
!!!OPR: recherches sur leur plain-chant.
!!!OTL: Ave Maris Stella (Canon in diapente, 2nd verse only)
!!!ONB: Canon at the fifth above, following a half note.
!!!YOR: "Hymnes de l"eglise, etc. 1624" Modern ed. by Norbert Dufourcq
!!!YOR: Paris: Editions Bornemann, 1965, pp. 51-52.
**kern	**kern	**kern
*guida	*conseq	*CF
*k[]	*k[]	*k[]
*e:	*e:	*e:
*M4/4	*M4/4	*M4/4
=1-	=1-	=1-
4r	2r	1r
2E	.	.
.	4r	.
4D	[4B	.
=2	=2	=2
2.C	4B]	1e
.	4A	.
.	[2G	.
4E	.	.
=3	=3	=3
2G	4G]	1d
.	4B	.
4D	2d	.
4E	.	.
=4	=4	=4
2.F	4A	1c
.	4B	.
.	[2c	.
8E	.	.
8D	.	.
=5	=5	=5
2.C	4c]	1e
.	8B	.
.	8A	.
.	[2G	.
4D	.	.
=6	=6	=6
4E	4G]	1g
4F	4A	.
4.E	4B	.
.	4c	.
8F	.	.
=7	=7	=7
2.G	4.B	1g
.	8c	.
.	[2d	.
4G	.	.
=8	=8	=8
2.F	4d]	1a
.	4d	.
.	[2c	.
8F	.	.
8G	.	.
=9	=9	=9
2.A	4c]	1a
.	8c	.
.	8d	.
.	[2e	.
8A	.	.
8B	.	.
=10	=10	=10
2c	4e]	1g
.	8e	.
.	8f	.
4C	2g	.
4D	.	.
=11	=11	=11
4E	4G	1g
8D	4A	.
8C	.	.
4G	4B	.
8F	8A	.
8E	8G	.
=12	=12	=12
8F	4d	1a
8D	.	.
2A	8c	.
.	8B	.
.	8c	.
.	8A	.
4G	[4e	.
=13	=13	=13
4.F	4e]	1a
.	4d	.
8G	.	.
2A	4.c	.
.	8d	.
=14	=14	=14
4E	2e	1g
2E	.	.
.	4B	.
4D	[4B	.
=15	=15	=15
2C	4B]	1e
.	4A	.
2r	2G	.
=16	=16	=16
4D	2r	1f
4.D	.	.
.	4A	.
8C	.	.
8D	[4A	.
8E	.	.
=17	=17	=17
2.F	8A]	1f
.	8G	.
.	8A	.
.	8B	.
.	[2c	.
4G	.	.
=18	=18	=18
2.A	4c]	1e
.	4d	.
.	[2e	.
8G	.	.
8F	.	.
=19	=19	=19
4E	4e]	1g
4F	8d	.
.	8c	.
4G	4B	.
8F	4c	.
8E	.	.
=20	=20	=20
4D	4d	1f
2D	8c	.
.	8B	.
.	4A	.
4C	[4A	.
=21	=21	=21
2BB	4A]	1d
.	4G	.
4r	2F	.
4D	.	.
=22	=22	=22
2C	4r	1e
.	4A	.
4r	2G	.
4E	.	.
=23	=23	=23
2D	4r	1f
.	4B	.
4F	2A	.
4G	.	.
=24	=24	=24
4A	4c	1e
4B	4d	.
2c	4e	.
.	4f	.
=25	=25	=25
8B	2g	1d
8G	.	.
8B	.	.
8c	.	.
2d	8f	.
.	8d	.
.	8f	.
.	8g	.
=26	=26	=26
2A	2a	1c
4r	2e	.
[4c	.	.
=27	=27	=27
4c]	4r	1r
4B	2g	.
[2A	.	.
.	4f	.
=28	=28	=28
4A]	2e	1c
4AA	.	.
4C	4r	.
[4C	4E	.
=29	=29	=29
8C]	4G	1e
8D	.	.
8E	4.G	.
8F	.	.
2G	.	.
.	8A	.
.	8B	.
.	8c	.
=30	=30	=30
4F	2d	1f
4D	.	.
4F	4c	.
[4F	4A	.
=31	=31	=31
4F]	4c	1g
4E	2c	.
2G	.	.
.	4B	.
=32	=32	=32
4r	2d	1f
4.D	.	.
.	4r	.
8D	.	.
4C	[4A	.
=33	=33	=33
4.BB	8A]	1d
.	8A	.
.	4G	.
8C	.	.
2D	4.F	.
.	8G	.
=34	=34	=34
4r	2A	1f
4D	.	.
4.F	4r	.
.	4A	.
8G	.	.
=35	=35	=35
2A	4.c	[1e
.	8d	.
4r	2e	.
4AA	.	.
=36	=36	=36
4.C	4r	1e_
.	4E	.
8D	.	.
4E	4.G	.
[4E	.	.
.	8A	.
=37	=37	=37
4E]	4B	1e_
4D	2B	.
4C	.	.
4AA	4A	.
=38	=38	=38
2.C	4G	1e_
.	4E	.
.	[2G	.
4D	.	.
=39	=39	=39
4E	4G]	1e_
4F	4A	.
4E	4B	.
[4E	4c	.
=40	=40	=40
4E]	4B	1e_
4D	2B	.
4C	.	.
4AA	4A	.
=41	=41	=41
[1E	[1G#	1e_
=42-	=42-	=42-
1E;]	1G#;]	1e]
==	==	==
*-	*-	*-
!!!CDT: /1563///-/1633/10/25
!!!OCY: Francais
!!!ODT: </1624//
!!!AFR: cantus firmus canon
!!!AST: polyphony
!!!AMT: simple quadruple
!!!AIN: organ
!!!YEP: David Huron and Denis Collins
!!!YEN: Canada
!!!EEV: 1.0
!!!RDT: 1995 June 3
!!!YED: 1995 August 31
